contributed-vectors/hue_essentials.svg

<svg xmlns="http://www.w3.org/2000/svg" xml:space="preserve" style="fill-rule:evenodd;clip-rule:evenodd;stroke-linejoin:round;stroke-miterlimit:2" viewBox="0 0 192 192"><path d="M164.5 21.5c0-5.519-4.481-10-10-10h-133c-5.519 0-10 4.481-10 10v133c0 5.519 4.481 10 10 10h133c5.519 0 10-4.481 10-10v-133Z" style="fill:#bd9aff" transform="translate(8 8)"/><path d="M95.715 80.437c-12.017.143-19.361-2.089-19.361-2.089C59.366 54.065 83.919 52.994 96 52.994h.285c12.176.018 36.216 1.26 19.361 25.354 0 0-7.46 2.267-19.646 2.086l-.285.003ZM114.763 82.461c-.393 1.51-3.624 14.232-7.078 36.389 0 0-2.062 3.429-11.685 3.429h-.112c-9.527-.027-11.573-3.429-11.573-3.429-3.454-22.157-6.685-34.879-7.078-36.389.422.105.992.239 1.701.386 3.415.9 7.689 1.241 11.106 1.358 1.75.09 3.644.133 5.671.109L96 84.31a90.541 90.541 0 0 0 5.952-.104c3.417-.117 7.694-.459 11.111-1.359a44.593 44.593 0 0 0 1.7-.386Z" style="fill:#fff" transform="translate(13.707 13.824) scale(.85722)"/><path d="M90.175 136.752c-1.716-1.338-2.743-3.568-2.743-5.954v-3.442c0-1.442 1.015-2.612 2.268-2.612h10.951c1.253 0 2.269 1.17 2.269 2.612v3.442c0 2.386-1.028 4.616-2.743 5.954l-2.715 2.117c-1.381 1.076-3.192 1.076-4.573 0l-2.714-2.117Z" style="fill:#fff" transform="matrix(.98685 0 0 .85722 2.076 13.824)"/></svg>

<?xml version="1.0" encoding="UTF-8" standalone="no"?>
<!DOCTYPE svg PUBLIC "-//W3C//DTD SVG 1.1//EN" "http://www.w3.org/Graphics/SVG/1.1/DTD/svg11.dtd">
<svg width="100%" height="100%" viewBox="0 0 192 192" version="1.1" xmlns="http://www.w3.org/2000/svg" xmlns:xlink="http://www.w3.org/1999/xlink" xml:space="preserve" xmlns:serif="http://www.serif.com/" style="fill-rule:evenodd;clip-rule:evenodd;stroke-linejoin:round;stroke-miterlimit:2;">
    <g id="Layer1">
        <g transform="matrix(1,0,0,1,8,8)">
            <path d="M164.5,21.5C164.5,15.981 160.019,11.5 154.5,11.5L21.5,11.5C15.981,11.5 11.5,15.981 11.5,21.5L11.5,154.5C11.5,160.019 15.981,164.5 21.5,164.5L154.5,164.5C160.019,164.5 164.5,160.019 164.5,154.5L164.5,21.5Z" style="fill:rgb(189,154,255);"/>
        </g>
        <g transform="matrix(0.857222,0,0,0.857222,13.7067,13.8242)">
            <g transform="matrix(1,0,0,1,-3.37182e-06,0)">
                <path d="M95.715,80.437C83.698,80.58 76.354,78.348 76.354,78.348C59.366,54.065 83.919,52.994 96,52.994L96.285,52.994C108.461,53.012 132.501,54.254 115.646,78.348C115.646,78.348 108.186,80.615 96,80.434L95.715,80.437Z" style="fill:white;"/>
            </g>
            <g transform="matrix(1,0,0,1,-3.86372e-06,0)">
                <path d="M114.763,82.461C114.37,83.971 111.139,96.693 107.685,118.85C107.685,118.85 105.623,122.279 96,122.279L95.888,122.279C86.361,122.252 84.315,118.85 84.315,118.85C80.861,96.693 77.63,83.971 77.237,82.461C77.659,82.566 78.229,82.7 78.938,82.847C82.353,83.747 86.627,84.088 90.044,84.205C91.794,84.295 93.688,84.338 95.715,84.314L96,84.31C98.134,84.342 100.123,84.299 101.952,84.206C105.369,84.089 109.646,83.747 113.063,82.847C113.771,82.7 114.341,82.566 114.763,82.461Z" style="fill:white;"/>
            </g>
            <g transform="matrix(1.15122,0,0,1,-13.5678,0)">
                <path d="M90.175,136.752C88.459,135.414 87.432,133.184 87.432,130.798C87.432,129.647 87.432,128.41 87.432,127.356C87.432,125.914 88.447,124.744 89.7,124.744C92.635,124.744 97.717,124.744 100.651,124.744C101.904,124.744 102.92,125.914 102.92,127.356C102.92,128.41 102.92,129.647 102.92,130.798C102.92,133.184 101.892,135.414 100.177,136.752C99.288,137.444 98.314,138.205 97.462,138.869C96.081,139.945 94.27,139.945 92.889,138.869C92.038,138.205 91.063,137.444 90.175,136.752Z" style="fill:white;"/>
            </g>
        </g>
    </g>
</svg>
